X:667
T:Glenburnie Rant 
C:Joe Buchanan's Scottish Tome - Page 205.2
I:205 2
R:Reel
Z:Carl Allison
L:1/8
M:4/4
K:G
e2 | E2 E2  EF E2 EF | DEFA AFDF | E2 EF E2 B2 | efe^d e2 :| 
B2 | e2 ef g2 fe | defg afdf | e2 ef g2 fe | efe^d e2 B2 | 
e2 ef g2 fe | defg afdf | g2 ag f2 gf | efe^d e2 |]

